build/documents/DocViewOutline.svg

<svg xmlns="http://www.w3.org/2000/svg" fill="none" viewBox="0 0 24 24" focusable="false"><path d="M0 0H24V24H0z"/><path fill="#74767B" fill-rule="evenodd" d="M20.0001 6C20.0001 4.34315 18.6569 3 17.0001 3L7.00684 3C5.34998 3 4.00684 4.34315 4.00684 6L4.00684 18C4.00684 19.6569 5.34998 21 7.00684 21L17.0001 21C18.6569 21 20.0001 19.6569 20.0001 18L20.0001 6ZM17.0001 4.3L7.00684 4.3C6.06795 4.3 5.30684 5.06112 5.30684 6L5.30684 18C5.30684 18.9389 6.06795 19.7 7.00684 19.7L17.0001 19.7C17.939 19.7 18.7001 18.9389 18.7001 18L18.7001 6C18.7001 5.06112 17.939 4.3 17.0001 4.3Z"/><path fill="#74767B" d="M12.0001 13.7338C12.9576 13.7338 13.7339 12.9576 13.7339 12C13.7339 11.0425 12.9576 10.2662 12.0001 10.2662C11.0425 10.2662 10.2663 11.0425 10.2663 12C10.2663 12.9576 11.0425 13.7338 12.0001 13.7338Z"/><path fill="#74767B" d="M12.0001 13.7338C12.9576 13.7338 13.7339 12.9576 13.7339 12C13.7339 11.0425 12.9576 10.2662 12.0001 10.2662C11.0425 10.2662 10.2663 11.0425 10.2663 12C10.2663 12.9576 11.0425 13.7338 12.0001 13.7338Z"/><path fill="#74767B" fill-rule="evenodd" d="M12.0035 8.01806C9.55953 8.01806 7.93062 10.0909 7.21489 11.241C6.93299 11.694 6.93299 12.2825 7.21489 12.7355C7.93062 13.8856 9.55953 15.9584 12.0035 15.9584C14.4474 15.9584 16.0763 13.8856 16.792 12.7355C17.0739 12.2825 17.0739 11.694 16.792 11.241C16.0763 10.0909 14.4474 8.01806 12.0035 8.01806ZM8.31863 11.9279C8.63543 11.4188 9.13476 10.7404 9.78852 10.2009C10.4357 9.66689 11.171 9.31806 12.0035 9.31806C12.8359 9.31806 13.5713 9.66689 14.2184 10.2009C14.8722 10.7404 15.3715 11.4188 15.6883 11.9279C15.6958 11.9399 15.7035 11.9606 15.7035 11.9882C15.7035 12.0159 15.6958 12.0366 15.6883 12.0486C15.3715 12.5577 14.8722 13.2361 14.2184 13.7756C13.5713 14.3096 12.8359 14.6584 12.0035 14.6584C11.171 14.6584 10.4357 14.3096 9.78852 13.7756C9.13476 13.2361 8.63543 12.5577 8.31863 12.0486C8.31116 12.0366 8.30346 12.0159 8.30346 11.9882C8.30346 11.9606 8.31116 11.9399 8.31863 11.9279Z"/><path fill="#74767B" fill-rule="evenodd" d="M12.0035 8.01806C9.55953 8.01806 7.93062 10.0909 7.21489 11.241C6.93299 11.694 6.93299 12.2825 7.21489 12.7355C7.93062 13.8856 9.55953 15.9584 12.0035 15.9584C14.4474 15.9584 16.0763 13.8856 16.792 12.7355C17.0739 12.2825 17.0739 11.694 16.792 11.241C16.0763 10.0909 14.4474 8.01806 12.0035 8.01806ZM8.31863 11.9279C8.63543 11.4188 9.13476 10.7404 9.78852 10.2009C10.4357 9.66689 11.171 9.31806 12.0035 9.31806C12.8359 9.31806 13.5713 9.66689 14.2184 10.2009C14.8722 10.7404 15.3715 11.4188 15.6883 11.9279C15.6958 11.9399 15.7035 11.9606 15.7035 11.9882C15.7035 12.0159 15.6958 12.0366 15.6883 12.0486C15.3715 12.5577 14.8722 13.2361 14.2184 13.7756C13.5713 14.3096 12.8359 14.6584 12.0035 14.6584C11.171 14.6584 10.4357 14.3096 9.78852 13.7756C9.13476 13.2361 8.63543 12.5577 8.31863 12.0486C8.31116 12.0366 8.30346 12.0159 8.30346 11.9882C8.30346 11.9606 8.31116 11.9399 8.31863 11.9279Z"/></svg>

<svg xmlns="http://www.w3.org/2000/svg" fill="none" viewBox="0 0 24 24" focusable="false"><g fill="#74767B"><path fill-rule="evenodd" d="M20 6c0-1.66-1.35-3-3-3H7C5.35 3 4 4.34 4 6v12c0 1.65 1.35 3 3 3h10c1.65 0 3-1.35 3-3zm-3-1.71H7c-.94 0-1.7.77-1.7 1.71v12c0 .93.76 1.7 1.7 1.7h10c.93 0 1.7-.77 1.7-1.7V6c0-.94-.77-1.71-1.7-1.71"/><path d="M12 13.73c.95 0 1.73-.78 1.73-1.73 0-.96-.78-1.74-1.73-1.74-.96 0-1.74.78-1.74 1.74 0 .95.78 1.73 1.74 1.73"/><path fill-rule="evenodd" d="M12 8.01c-2.45 0-4.07 2.08-4.79 3.23-.28.45-.28 1.04 0 1.49.72 1.15 2.34 3.22 4.79 3.22 2.44 0 4.07-2.07 4.79-3.22.28-.45.28-1.04 0-1.49-.72-1.15-2.35-3.23-4.79-3.23m-3.69 3.91c.32-.51.82-1.18 1.47-1.72s1.39-.89 2.22-.89 1.57.35 2.21.89c.66.54 1.16 1.21 1.47 1.72.01.01.02.04.02.06 0 .03-.01.05-.02.06-.31.51-.81 1.19-1.47 1.73-.64.53-1.38.88-2.21.88s-1.57-.35-2.22-.88c-.65-.54-1.15-1.22-1.47-1.73 0-.01-.01-.03-.01-.06 0-.02.01-.05.01-.06"/></g></svg>
